X: 6354
T: Casey's Favourite
R: strathspey
M: 4/4
K: Dmajor
A>dB>d A2 F>G|A2 d>f g>ee>f|f>dB>d A2 F>G|A2 d>e f>d d2|
f>dB>d A2 F>G|A>Ad>f g>ee>f|A>dB>d A2 F>G|A>Ad>e f>d d2||
|:f>a a2 f>a d2|e>fe>d c>e A2|1 f>a a2 f>a d2|A>Bd>e f>d d2:|2 B>dc>e d>fe>g|f>ba>g f>d d2||

